src/rounded/icons/fi-rr-pulse.svg

<svg id="Layer_1" height="512" viewBox="0 0 24 24" width="512" xmlns="http://www.w3.org/2000/svg" data-name="Layer 1"><path d="m19 1h-14a5.006 5.006 0 0 0 -5 5v8a5.006 5.006 0 0 0 5 5h6v2h-4a1 1 0 0 0 0 2h10a1 1 0 0 0 0-2h-4v-2h6a5.006 5.006 0 0 0 5-5v-8a5.006 5.006 0 0 0 -5-5zm3 13a3 3 0 0 1 -3 3h-14a3 3 0 0 1 -3-3v-8a3 3 0 0 1 3-3h14a3 3 0 0 1 3 3zm-2-4a1 1 0 0 1 -1 1h-2.965l-1.7 2.555a1 1 0 0 1 -.835.445c-.021 0-.042 0-.062 0a1 1 0 0 1 -.833-.551l-2.229-4.461-1.044 1.567a1 1 0 0 1 -.832.445h-3.5a1 1 0 0 1 0-2h2.965l1.7-2.555a.987.987 0 0 1 .897-.445 1 1 0 0 1 .833.551l2.229 4.459 1.044-1.567a1 1 0 0 1 .832-.443h3.5a1 1 0 0 1 1 1z"/></svg>

<svg id="Layer_1" data-name="Layer 1" xmlns="http://www.w3.org/2000/svg" viewBox="0 0 24 24"><path d="M19,1H5A5.006,5.006,0,0,0,0,6v8a5.006,5.006,0,0,0,5,5h6v2H7a1,1,0,0,0,0,2H17a1,1,0,0,0,0-2H13V19h6a5.006,5.006,0,0,0,5-5V6A5.006,5.006,0,0,0,19,1Zm3,13a3,3,0,0,1-3,3H5a3,3,0,0,1-3-3V6A3,3,0,0,1,5,3H19a3,3,0,0,1,3,3Zm-2-4a1,1,0,0,1-1,1H16.035l-1.7,2.555A1,1,0,0,1,13.5,14c-.021,0-.042,0-.062,0a1,1,0,0,1-.833-.551L10.376,8.988,9.332,10.555A1,1,0,0,1,8.5,11H5A1,1,0,0,1,5,9H7.965l1.7-2.555A.987.987,0,0,1,10.562,6a1,1,0,0,1,.833.551l2.229,4.459,1.044-1.567A1,1,0,0,1,15.5,9H19A1,1,0,0,1,20,10Z"/></svg>
